src/assets/imgs/icons/wallet/ic_sort_down.svg

<?xml version="1.0" encoding="UTF-8"?>
<svg width="16px" height="16px" viewBox="0 0 16 16" version="1.1" xmlns="http://www.w3.org/2000/svg" xmlns:xlink="http://www.w3.org/1999/xlink">
    <!-- Generator: Sketch 52.2 (67145) - http://www.bohemiancoding.com/sketch -->
    <title>ic_sort_down</title>
    <desc>Created with Sketch.</desc>
    <g id="Export" stroke="none" stroke-width="1" fill="none" fill-rule="evenodd">
        <g id="ic_sort_down" transform="translate(0.000000, 2.000000)" fill="#696B8A">
            <path d="M0.5,2 L5.5,2 C5.77614237,2 6,2.22385763 6,2.5 C6,2.77614237 5.77614237,3 5.5,3 L0.5,3 C0.223857625,3 3.38176876e-17,2.77614237 0,2.5 C-3.38176876e-17,2.22385763 0.223857625,2 0.5,2 Z M0.5,6 L7.5,6 C7.77614237,6 8,6.22385763 8,6.5 C8,6.77614237 7.77614237,7 7.5,7 L0.5,7 C0.223857625,7 3.38176876e-17,6.77614237 0,6.5 C-3.38176876e-17,6.22385763 0.223857625,6 0.5,6 Z M0.5,10 L9.5,10 C9.77614237,10 10,10.2238576 10,10.5 C10,10.7761424 9.77614237,11 9.5,11 L0.5,11 C0.223857625,11 3.38176876e-17,10.7761424 0,10.5 C-3.38176876e-17,10.2238576 0.223857625,10 0.5,10 Z M13.35425,11.854 C13.15825,12.049 12.846,12.049 12.65,11.854 C12.5501667,11.7710558 12.5001667,11.6530558 12.5,11.5 L12.50025,10.292 L12.50025,0.5 C12.50025,0.224 12.72425,-7.10542736e-15 13.00025,-7.10542736e-15 C13.27525,-7.10542736e-15 13.50025,0.224 13.50025,0.5 L13.50025,10.293 L15.14625,8.646 C15.24425,8.549 15.37225,8.5 15.50025,8.5 C15.62725,8.5 15.75625,8.549 15.85425,8.646 C16.04925,8.842 16.04925,9.159 15.85425,9.354 L13.35425,11.854 Z" id="Combined-Shape"></path>
        </g>
    </g>
</svg>

<?xml version="1.0" encoding="utf-8"?>
<!-- Generator: Adobe Illustrator 23.0.1, SVG Export Plug-In . SVG Version: 6.00 Build 0)  -->
<svg version="1.1" id="图层_1" xmlns="http://www.w3.org/2000/svg" xmlns:xlink="http://www.w3.org/1999/xlink" x="0px" y="0px"
	 viewBox="0 0 16 16" style="enable-background:new 0 0 16 16;" xml:space="preserve">
<style type="text/css">
	.st0{fill-rule:evenodd;clip-rule:evenodd;fill:#AEAEAE;}
</style>
<title>ic_sort_down</title>
<desc>Created with Sketch.</desc>
<g id="Export">
	<g id="ic_sort_down" transform="translate(0.000000, 2.000000)">
		<path id="Combined-Shape" class="st0" d="M0.5,2h5C5.8,2,6,2.2,6,2.5S5.8,3,5.5,3h-5C0.2,3,0,2.8,0,2.5S0.2,2,0.5,2z M0.5,6h7
			C7.8,6,8,6.2,8,6.5S7.8,7,7.5,7h-7C0.2,7,0,6.8,0,6.5S0.2,6,0.5,6z M0.5,10h9c0.3,0,0.5,0.2,0.5,0.5S9.8,11,9.5,11h-9
			C0.2,11,0,10.8,0,10.5S0.2,10,0.5,10z M13.4,11.9c-0.2,0.2-0.5,0.2-0.7,0c-0.1-0.1-0.1-0.2-0.1-0.4l0-1.2V0.5
			C12.5,0.2,12.7,0,13,0c0.3,0,0.5,0.2,0.5,0.5v9.8l1.6-1.6c0.1-0.1,0.2-0.1,0.4-0.1c0.1,0,0.3,0,0.4,0.1c0.2,0.2,0.2,0.5,0,0.7
			L13.4,11.9z"/>
	</g>
</g>
</svg>
